X: 80
T:Jacob Hall's Jig
M:6/8
L:1/8
Q:120
S:Playford
O:Manuscript
K:Fm
F2 f e2 =d| c3 B3|A>Bc B2 A|G3 E3 | F2 f e2 f| g3 c2 c |=d>ef f e2| f3 f3:|
|:e2 e e>=dc| B2 B B2 G| A>Bc B2 A| G3 E3| F3 f e2 f| g3 c2 c| =d>ef fe2 | f3 f3:|

